img/Header/email.svg

<svg width="46" height="30" viewBox="0 0 46 30" fill="none" xmlns="http://www.w3.org/2000/svg">
<path d="M36.1875 3H9.8125C8.25856 3 7 4.29452 7 5.875V23.125C7 24.7149 8.26781 26 9.8125 26H36.1875C37.7284 26 39 24.7203 39 23.125V5.875C39 4.29733 37.7464 3 36.1875 3ZM35.7936 4.91667C35.219 5.50093 25.3302 15.5563 24.9888 15.9034C24.4575 16.4465 23.7512 16.7455 23 16.7455C22.2487 16.7455 21.5425 16.4464 21.0095 15.9017C20.7799 15.6681 11.0002 5.72384 10.2064 4.91667H35.7936ZM8.875 22.7349V6.26632L16.9774 14.5051L8.875 22.7349ZM10.2076 24.0833L18.3068 15.8568L19.6854 17.2587C20.5708 18.1638 21.7479 18.6622 23 18.6622C24.2521 18.6622 25.4292 18.1638 26.3128 17.2605L27.6933 15.8568L35.7924 24.0833H10.2076ZM37.125 22.7349L29.0226 14.5051L37.125 6.26632V22.7349Z" fill="url(#paint0_linear_212_102)"/>
<defs>
<linearGradient id="paint0_linear_212_102" x1="3.93291" y1="-6.85714" x2="41.1919" y2="-4.77508" gradientUnits="userSpaceOnUse">
<stop stop-color="#00B292"/>
<stop offset="0.290505" stop-color="#2DFFD9"/>
<stop offset="0.635914" stop-color="#54FFE0"/>
<stop offset="0.978018" stop-color="#03776F"/>
</linearGradient>
</defs>
</svg>

<svg width="46" height="30" fill="none" xmlns="http://www.w3.org/2000/svg"><path d="M36.188 3H9.811C8.26 3 7 4.295 7 5.875v17.25C7 24.715 8.268 26 9.813 26h26.374C37.728 26 39 24.72 39 23.125V5.875C39 4.297 37.746 3 36.187 3zm-.394 1.917L24.989 15.903a2.766 2.766 0 01-3.98-.002L10.206 4.918h25.588zM8.875 22.735V6.266l8.102 8.24-8.102 8.229zm1.333 1.348l8.099-8.226 1.378 1.402A4.606 4.606 0 0023 18.662c1.252 0 2.43-.498 3.313-1.401l1.38-1.404 8.1 8.226H10.207zm26.917-1.348l-8.102-8.23 8.102-8.239v16.469z" fill="url(#paint0_linear_212_102)"/><defs><linearGradient id="paint0_linear_212_102" x1="3.933" y1="-6.857" x2="41.192" y2="-4.775" gradientUnits="userSpaceOnUse"><stop stop-color="#00B292"/><stop offset=".291" stop-color="#2DFFD9"/><stop offset=".636" stop-color="#54FFE0"/><stop offset=".978" stop-color="#03776F"/></linearGradient></defs></svg>
